images/3233277.svg

<?xml version="1.0" encoding="UTF-8"?>
<svg xmlns="http://www.w3.org/2000/svg" xmlns:xlink="http://www.w3.org/1999/xlink" width="300pt" height="300pt" viewBox="0 0 300 300" version="1.1">
<defs>
<g>
<symbol overflow="visible" id="glyph0-0">
<path style="stroke:none;" d="M 0.546875 1.9375 L 0.546875 -7.75 L 6.046875 -7.75 L 6.046875 1.9375 Z M 1.171875 1.328125 L 5.4375 1.328125 L 5.4375 -7.140625 L 1.171875 -7.140625 Z M 1.171875 1.328125 "/>
</symbol>
<symbol overflow="visible" id="glyph0-1">
<path style="stroke:none;" d="M 1.078125 -8.015625 L 2.546875 -8.015625 L 6.09375 -1.3125 L 6.09375 -8.015625 L 7.15625 -8.015625 L 7.15625 0 L 5.6875 0 L 2.125 -6.703125 L 2.125 0 L 1.078125 0 Z M 1.078125 -8.015625 "/>
</symbol>
<symbol overflow="visible" id="glyph0-2">
<path style="stroke:none;" d="M 4.328125 -7.28125 C 3.546875 -7.28125 2.921875 -6.984375 2.453125 -6.390625 C 1.992188 -5.804688 1.765625 -5.007812 1.765625 -4 C 1.765625 -2.988281 1.992188 -2.1875 2.453125 -1.59375 C 2.921875 -1.007812 3.546875 -0.71875 4.328125 -0.71875 C 5.117188 -0.71875 5.742188 -1.007812 6.203125 -1.59375 C 6.660156 -2.1875 6.890625 -2.988281 6.890625 -4 C 6.890625 -5.007812 6.660156 -5.804688 6.203125 -6.390625 C 5.742188 -6.984375 5.117188 -7.28125 4.328125 -7.28125 Z M 4.328125 -8.171875 C 5.453125 -8.171875 6.351562 -7.789062 7.03125 -7.03125 C 7.707031 -6.28125 8.046875 -5.269531 8.046875 -4 C 8.046875 -2.738281 7.707031 -1.726562 7.03125 -0.96875 C 6.351562 -0.21875 5.453125 0.15625 4.328125 0.15625 C 3.203125 0.15625 2.300781 -0.21875 1.625 -0.96875 C 0.957031 -1.71875 0.625 -2.726562 0.625 -4 C 0.625 -5.269531 0.957031 -6.28125 1.625 -7.03125 C 2.300781 -7.789062 3.203125 -8.171875 4.328125 -8.171875 Z M 4.328125 -8.171875 "/>
</symbol>
</g>
</defs>
<g id="surface42833">
<rect x="0" y="0" width="300" height="300" style="fill:rgb(100%,100%,100%);fill-opacity:1;stroke:none;"/>
<path style="fill:none;stroke-width:1.2;stroke-linecap:butt;stroke-linejoin:miter;stroke:rgb(0%,0%,0%);stroke-opacity:1;stroke-miterlimit:10;" d="M 175.699219 210.203125 L 147.671875 213.683594 "/>
<path style="fill:none;stroke-width:1.2;stroke-linecap:butt;stroke-linejoin:miter;stroke:rgb(0%,0%,0%);stroke-opacity:1;stroke-miterlimit:10;" d="M 186.695312 184.1875 L 175.699219 210.203125 "/>
<path style="fill:none;stroke-width:1;stroke-linecap:butt;stroke-linejoin:miter;stroke:rgb(0%,0%,0%);stroke-opacity:1;stroke-miterlimit:10;" d="M 130.640625 191.152344 L 130.640625 191.152344 M 132.003906 193.824219 L 132.835938 193.195312 M 133.371094 196.496094 L 135.035156 195.238281 M 134.734375 199.167969 L 137.230469 197.28125 M 136.101562 201.835938 L 139.429688 199.324219 M 137.464844 204.507812 L 141.625 201.367188 M 138.832031 207.179688 L 143.824219 203.40625 M 140.199219 209.851562 L 146.019531 205.449219 M 141.5625 212.523438 L 148.21875 207.492188 M 142.929688 215.195312 L 150.414062 209.535156 M 143.695312 216.691406 L 151.644531 210.679688 "/>
<path style="fill:none;stroke-width:1.2;stroke-linecap:butt;stroke-linejoin:miter;stroke:rgb(0%,0%,0%);stroke-opacity:1;stroke-miterlimit:10;" d="M 130.640625 191.152344 L 116.980469 215.875 "/>
<path style="fill:none;stroke-width:1.2;stroke-linecap:butt;stroke-linejoin:miter;stroke:rgb(0%,0%,0%);stroke-opacity:1;stroke-miterlimit:10;" d="M 130.640625 191.152344 L 141.636719 165.136719 "/>
<path style="fill:none;stroke-width:1.2;stroke-linecap:butt;stroke-linejoin:miter;stroke:rgb(0%,0%,0%);stroke-opacity:1;stroke-miterlimit:10;" d="M 111.347656 170.523438 L 130.640625 191.152344 "/>
<path style="fill:none;stroke-width:1.2;stroke-linecap:butt;stroke-linejoin:miter;stroke:rgb(0%,0%,0%);stroke-opacity:1;stroke-miterlimit:10;" d="M 116.980469 215.875 L 89.25 210.527344 "/>
<path style="fill:none;stroke-width:1.2;stroke-linecap:butt;stroke-linejoin:miter;stroke:rgb(0%,0%,0%);stroke-opacity:1;stroke-miterlimit:10;" d="M 89.25 210.527344 L 87.507812 196.511719 "/>
<path style="fill:none;stroke-width:1.2;stroke-linecap:butt;stroke-linejoin:miter;stroke:rgb(0%,0%,100%);stroke-opacity:1;stroke-miterlimit:10;" d="M 87.507812 196.511719 L 85.765625 182.5 "/>
<path style="fill:none;stroke-width:1.2;stroke-linecap:butt;stroke-linejoin:miter;stroke:rgb(0%,0%,100%);stroke-opacity:1;stroke-miterlimit:10;" d="M 85.765625 182.5 L 98.554688 176.511719 "/>
<path style="fill:none;stroke-width:1.2;stroke-linecap:butt;stroke-linejoin:miter;stroke:rgb(0%,0%,0%);stroke-opacity:1;stroke-miterlimit:10;" d="M 98.554688 176.511719 L 111.347656 170.523438 "/>
<path style="fill:none;stroke-width:1.2;stroke-linecap:butt;stroke-linejoin:miter;stroke:rgb(0%,0%,100%);stroke-opacity:1;stroke-miterlimit:10;" d="M 85.765625 182.5 L 73.402344 175.671875 "/>
<path style="fill:none;stroke-width:1.2;stroke-linecap:butt;stroke-linejoin:miter;stroke:rgb(0%,0%,0%);stroke-opacity:1;stroke-miterlimit:10;" d="M 73.402344 175.671875 L 61.042969 168.84375 "/>
<path style=" stroke:none;fill-rule:nonzero;fill:rgb(100%,100%,100%);fill-opacity:1;" d="M 81.765625 176 L 89.765625 176 L 89.765625 189 L 81.765625 189 Z M 81.765625 176 "/>
<g style="fill:rgb(0%,0%,100%);fill-opacity:1;">
  <use xlink:href="#glyph0-1" x="81.765625" y="185.901367"/>
</g>
<path style="fill:none;stroke-width:1.2;stroke-linecap:butt;stroke-linejoin:miter;stroke:rgb(0%,0%,0%);stroke-opacity:1;stroke-miterlimit:10;" d="M 61.042969 168.84375 L 60.507812 140.601562 "/>
<path style="fill:none;stroke-width:1.2;stroke-linecap:butt;stroke-linejoin:miter;stroke:rgb(0%,0%,0%);stroke-opacity:1;stroke-miterlimit:10;" d="M 60.507812 140.601562 L 84.695312 126.019531 "/>
<path style="fill:none;stroke-width:1.2;stroke-linecap:butt;stroke-linejoin:miter;stroke:rgb(0%,0%,0%);stroke-opacity:1;stroke-miterlimit:10;" d="M 59.496094 133.453125 L 78.847656 121.785156 "/>
<path style="fill:none;stroke-width:1.2;stroke-linecap:butt;stroke-linejoin:miter;stroke:rgb(0%,0%,0%);stroke-opacity:1;stroke-miterlimit:10;" d="M 35.785156 126.945312 L 60.507812 140.601562 "/>
<path style="fill:none;stroke-width:1.2;stroke-linecap:butt;stroke-linejoin:miter;stroke:rgb(0%,0%,0%);stroke-opacity:1;stroke-miterlimit:10;" d="M 84.695312 126.019531 L 84.160156 97.78125 "/>
<path style="fill:none;stroke-width:1.2;stroke-linecap:butt;stroke-linejoin:miter;stroke:rgb(0%,0%,0%);stroke-opacity:1;stroke-miterlimit:10;" d="M 84.160156 97.78125 L 71.800781 90.953125 "/>
<path style="fill:none;stroke-width:1.2;stroke-linecap:butt;stroke-linejoin:miter;stroke:rgb(0%,0%,100%);stroke-opacity:1;stroke-miterlimit:10;" d="M 71.800781 90.953125 L 59.4375 84.125 "/>
<path style="fill:none;stroke-width:1.2;stroke-linecap:butt;stroke-linejoin:miter;stroke:rgb(0%,0%,0%);stroke-opacity:1;stroke-miterlimit:10;" d="M 78.476562 102.230469 L 68.585938 96.769531 "/>
<path style="fill:none;stroke-width:1.2;stroke-linecap:butt;stroke-linejoin:miter;stroke:rgb(0%,0%,100%);stroke-opacity:1;stroke-miterlimit:10;" d="M 68.585938 96.769531 L 58.699219 91.308594 "/>
<path style="fill:none;stroke-width:1.2;stroke-linecap:butt;stroke-linejoin:miter;stroke:rgb(0%,0%,100%);stroke-opacity:1;stroke-miterlimit:10;" d="M 59.4375 84.125 L 47.34375 91.414062 "/>
<path style="fill:none;stroke-width:1.2;stroke-linecap:butt;stroke-linejoin:miter;stroke:rgb(0%,0%,0%);stroke-opacity:1;stroke-miterlimit:10;" d="M 47.34375 91.414062 L 35.25 98.707031 "/>
<path style=" stroke:none;fill-rule:nonzero;fill:rgb(100%,100%,100%);fill-opacity:1;" d="M 55.4375 77.625 L 63.4375 77.625 L 63.4375 90.625 L 55.4375 90.625 Z M 55.4375 77.625 "/>
<g style="fill:rgb(0%,0%,100%);fill-opacity:1;">
  <use xlink:href="#glyph0-1" x="55.4375" y="87.526367"/>
</g>
<path style="fill:none;stroke-width:1.2;stroke-linecap:butt;stroke-linejoin:miter;stroke:rgb(0%,0%,0%);stroke-opacity:1;stroke-miterlimit:10;" d="M 35.25 98.707031 L 35.785156 126.945312 "/>
<path style="fill:none;stroke-width:1.2;stroke-linecap:butt;stroke-linejoin:miter;stroke:rgb(0%,0%,0%);stroke-opacity:1;stroke-miterlimit:10;" d="M 41.949219 101.40625 L 42.375 123.996094 "/>
<path style="fill:none;stroke-width:1.2;stroke-linecap:butt;stroke-linejoin:miter;stroke:rgb(0%,0%,0%);stroke-opacity:1;stroke-miterlimit:10;" d="M 141.636719 165.136719 L 155.652344 163.394531 "/>
<path style="fill:none;stroke-width:1.2;stroke-linecap:butt;stroke-linejoin:miter;stroke:rgb(0%,0%,100%);stroke-opacity:1;stroke-miterlimit:10;" d="M 155.652344 163.394531 L 169.664062 161.652344 "/>
<path style="fill:none;stroke-width:1.2;stroke-linecap:butt;stroke-linejoin:miter;stroke:rgb(0%,0%,100%);stroke-opacity:1;stroke-miterlimit:10;" d="M 169.664062 161.652344 L 178.179688 172.921875 "/>
<path style="fill:none;stroke-width:1.2;stroke-linecap:butt;stroke-linejoin:miter;stroke:rgb(0%,0%,0%);stroke-opacity:1;stroke-miterlimit:10;" d="M 178.179688 172.921875 L 186.695312 184.1875 "/>
<path style="fill:none;stroke-width:1.2;stroke-linecap:butt;stroke-linejoin:miter;stroke:rgb(0%,0%,100%);stroke-opacity:1;stroke-miterlimit:10;" d="M 169.664062 161.652344 L 175.164062 148.648438 "/>
<path style="fill:none;stroke-width:1.2;stroke-linecap:butt;stroke-linejoin:miter;stroke:rgb(0%,0%,0%);stroke-opacity:1;stroke-miterlimit:10;" d="M 175.164062 148.648438 L 180.664062 135.640625 "/>
<path style=" stroke:none;fill-rule:nonzero;fill:rgb(100%,100%,100%);fill-opacity:1;" d="M 165.664062 155.152344 L 173.664062 155.152344 L 173.664062 168.152344 L 165.664062 168.152344 Z M 165.664062 155.152344 "/>
<g style="fill:rgb(0%,0%,100%);fill-opacity:1;">
  <use xlink:href="#glyph0-1" x="165.664062" y="165.053711"/>
</g>
<path style="fill:none;stroke-width:1.2;stroke-linecap:butt;stroke-linejoin:miter;stroke:rgb(0%,0%,0%);stroke-opacity:1;stroke-miterlimit:10;" d="M 183.3125 133.636719 L 174.796875 122.371094 "/>
<path style="fill:none;stroke-width:1.2;stroke-linecap:butt;stroke-linejoin:miter;stroke:rgb(100%,0%,0%);stroke-opacity:1;stroke-miterlimit:10;" d="M 174.796875 122.371094 L 166.28125 111.101562 "/>
<path style="fill:none;stroke-width:1.2;stroke-linecap:butt;stroke-linejoin:miter;stroke:rgb(0%,0%,0%);stroke-opacity:1;stroke-miterlimit:10;" d="M 178.011719 137.640625 L 169.496094 126.375 "/>
<path style="fill:none;stroke-width:1.2;stroke-linecap:butt;stroke-linejoin:miter;stroke:rgb(100%,0%,0%);stroke-opacity:1;stroke-miterlimit:10;" d="M 169.496094 126.375 L 160.980469 115.109375 "/>
<path style="fill:none;stroke-width:1.2;stroke-linecap:butt;stroke-linejoin:miter;stroke:rgb(0%,0%,0%);stroke-opacity:1;stroke-miterlimit:10;" d="M 180.664062 135.640625 L 208.691406 132.15625 "/>
<path style=" stroke:none;fill-rule:nonzero;fill:rgb(100%,100%,100%);fill-opacity:1;" d="M 154.632812 106.605469 L 163.632812 106.605469 L 163.632812 119.605469 L 154.632812 119.605469 Z M 154.632812 106.605469 "/>
<g style="fill:rgb(100%,0%,0%);fill-opacity:1;">
  <use xlink:href="#glyph0-2" x="154.632812" y="116.506836"/>
</g>
<path style="fill:none;stroke-width:1.2;stroke-linecap:butt;stroke-linejoin:miter;stroke:rgb(0%,0%,0%);stroke-opacity:1;stroke-miterlimit:10;" d="M 208.691406 132.15625 L 217.207031 143.421875 "/>
<path style="fill:none;stroke-width:1.2;stroke-linecap:butt;stroke-linejoin:miter;stroke:rgb(0%,0%,100%);stroke-opacity:1;stroke-miterlimit:10;" d="M 217.207031 143.421875 L 225.722656 154.6875 "/>
<path style="fill:none;stroke-width:1.2;stroke-linecap:butt;stroke-linejoin:miter;stroke:rgb(0%,0%,0%);stroke-opacity:1;stroke-miterlimit:10;" d="M 215.695312 130.402344 L 222.507812 139.414062 "/>
<path style="fill:none;stroke-width:1.2;stroke-linecap:butt;stroke-linejoin:miter;stroke:rgb(0%,0%,100%);stroke-opacity:1;stroke-miterlimit:10;" d="M 222.507812 139.414062 L 229.320312 148.425781 "/>
<path style="fill:none;stroke-width:1.2;stroke-linecap:butt;stroke-linejoin:miter;stroke:rgb(0%,0%,0%);stroke-opacity:1;stroke-miterlimit:10;" d="M 219.691406 106.140625 L 208.691406 132.15625 "/>
<path style="fill:none;stroke-width:1.2;stroke-linecap:butt;stroke-linejoin:miter;stroke:rgb(0%,0%,100%);stroke-opacity:1;stroke-miterlimit:10;" d="M 225.722656 154.6875 L 239.738281 152.945312 "/>
<path style="fill:none;stroke-width:1.2;stroke-linecap:butt;stroke-linejoin:miter;stroke:rgb(0%,0%,0%);stroke-opacity:1;stroke-miterlimit:10;" d="M 239.738281 152.945312 L 253.753906 151.203125 "/>
<path style=" stroke:none;fill-rule:nonzero;fill:rgb(100%,100%,100%);fill-opacity:1;" d="M 221.722656 148.1875 L 229.722656 148.1875 L 229.722656 161.1875 L 221.722656 161.1875 Z M 221.722656 148.1875 "/>
<g style="fill:rgb(0%,0%,100%);fill-opacity:1;">
  <use xlink:href="#glyph0-1" x="221.722656" y="158.088867"/>
</g>
<path style="fill:none;stroke-width:1.2;stroke-linecap:butt;stroke-linejoin:miter;stroke:rgb(0%,0%,0%);stroke-opacity:1;stroke-miterlimit:10;" d="M 253.753906 151.203125 L 264.75 125.1875 "/>
<path style="fill:none;stroke-width:1.2;stroke-linecap:butt;stroke-linejoin:miter;stroke:rgb(0%,0%,0%);stroke-opacity:1;stroke-miterlimit:10;" d="M 248.730469 146.015625 L 257.527344 125.203125 "/>
<path style="fill:none;stroke-width:1.2;stroke-linecap:butt;stroke-linejoin:miter;stroke:rgb(0%,0%,0%);stroke-opacity:1;stroke-miterlimit:10;" d="M 264.75 125.1875 L 256.234375 113.921875 "/>
<path style="fill:none;stroke-width:1.2;stroke-linecap:butt;stroke-linejoin:miter;stroke:rgb(0%,0%,100%);stroke-opacity:1;stroke-miterlimit:10;" d="M 256.234375 113.921875 L 247.71875 102.65625 "/>
<path style="fill:none;stroke-width:1.2;stroke-linecap:butt;stroke-linejoin:miter;stroke:rgb(0%,0%,100%);stroke-opacity:1;stroke-miterlimit:10;" d="M 247.71875 102.65625 L 233.703125 104.398438 "/>
<path style="fill:none;stroke-width:1.2;stroke-linecap:butt;stroke-linejoin:miter;stroke:rgb(0%,0%,0%);stroke-opacity:1;stroke-miterlimit:10;" d="M 233.703125 104.398438 L 219.691406 106.140625 "/>
<path style="fill:none;stroke-width:1.2;stroke-linecap:butt;stroke-linejoin:miter;stroke:rgb(0%,0%,100%);stroke-opacity:1;stroke-miterlimit:10;" d="M 245.734375 109.601562 L 234.523438 110.992188 "/>
<path style="fill:none;stroke-width:1.2;stroke-linecap:butt;stroke-linejoin:miter;stroke:rgb(0%,0%,0%);stroke-opacity:1;stroke-miterlimit:10;" d="M 234.523438 110.992188 L 223.3125 112.386719 "/>
<path style=" stroke:none;fill-rule:nonzero;fill:rgb(100%,100%,100%);fill-opacity:1;" d="M 243.71875 96.15625 L 251.71875 96.15625 L 251.71875 109.15625 L 243.71875 109.15625 Z M 243.71875 96.15625 "/>
<g style="fill:rgb(0%,0%,100%);fill-opacity:1;">
  <use xlink:href="#glyph0-1" x="243.71875" y="106.057617"/>
</g>
</g>
</svg>

<svg xmlns="http://www.w3.org/2000/svg" xmlns:xlink="http://www.w3.org/1999/xlink" width="300pt" height="300pt" viewBox="0 0 300 300"><defs><symbol overflow="visible"><path d="M.547 1.938V-7.75h5.5v9.688zm.625-.61h4.266v-8.47H1.171zm0 0"/></symbol><symbol overflow="visible" id="a"><path d="M1.078-8.016h1.47l3.546 6.704v-6.704h1.062V0H5.688L2.124-6.703V0H1.078zm0 0"/></symbol><symbol overflow="visible" id="b"><path d="M4.328-7.28c-.78 0-1.406.296-1.875.89-.46.585-.687 1.382-.687 2.39 0 1.012.226 1.813.687 2.406.47.586 1.094.875 1.875.875.79 0 1.414-.288 1.875-.874.457-.593.688-1.394.688-2.406 0-1.008-.23-1.805-.687-2.39-.46-.594-1.086-.89-1.875-.89zm0-.892c1.125 0 2.024.383 2.703 1.14C7.708-6.28 8.048-5.27 8.048-4c0 1.262-.34 2.273-1.016 3.03C6.353-.22 5.454.157 4.33.157S2.3-.22 1.625-.97c-.668-.75-1-1.757-1-3.03 0-1.27.332-2.28 1-3.03.676-.76 1.578-1.142 2.703-1.142zm0 0"/></symbol></defs><g><path fill="#fff" d="M0 0h300v300H0z"/><path d="M175.7 210.203l-28.028 3.48M186.695 184.188L175.7 210.202" stroke-width="1.2" stroke="#000" stroke-miterlimit="10" fill="none"/><path d="M130.64 191.152m1.364 2.672l.832-.63m.535 3.302l1.665-1.258m-.3 3.93l2.495-1.887m-1.128 4.556l3.328-2.512m-1.965 5.184l4.16-3.14m-2.793 5.812l4.992-3.774m-3.625 6.446l5.82-4.403m-4.458 7.073l6.657-5.03m-5.29 7.702l7.484-5.66m-6.72 7.156l7.95-6.01" stroke="#000" stroke-miterlimit="10" fill="none"/><path d="M130.64 191.152l-13.66 24.723M130.64 191.152l10.997-26.015M111.348 170.523l19.293 20.63M116.98 215.875l-27.73-5.348M89.25 210.527l-1.742-14.015" stroke-width="1.2" stroke="#000" stroke-miterlimit="10" fill="none"/><path d="M87.508 196.512L85.766 182.5M85.766 182.5l12.79-5.988" stroke-width="1.2" stroke="#00f" stroke-miterlimit="10" fill="none"/><path d="M98.555 176.512l12.793-5.99" stroke-width="1.2" stroke="#000" stroke-miterlimit="10" fill="none"/><path d="M85.766 182.5l-12.364-6.828" stroke-width="1.2" stroke="#00f" stroke-miterlimit="10" fill="none"/><path d="M73.402 175.672l-12.36-6.828" stroke-width="1.2" stroke="#000" stroke-miterlimit="10" fill="none"/><path d="M81.766 176h8v13h-8zm0 0" fill="#fff"/><use xlink:href="#a" x="81.766" y="185.901" fill="#00f"/><path d="M61.043 168.844l-.535-28.242M60.508 140.602l24.187-14.582M59.496 133.453l19.352-11.668M35.785 126.945l24.723 13.657M84.695 126.02l-.535-28.24M84.16 97.78L71.8 90.954" stroke-width="1.2" stroke="#000" stroke-miterlimit="10" fill="none"/><path d="M71.8 90.953L59.44 84.125" stroke-width="1.2" stroke="#00f" stroke-miterlimit="10" fill="none"/><path d="M78.477 102.23l-9.89-5.46" stroke-width="1.2" stroke="#000" stroke-miterlimit="10" fill="none"/><path d="M68.586 96.77L58.7 91.31M59.438 84.125l-12.094 7.29" stroke-width="1.2" stroke="#00f" stroke-miterlimit="10" fill="none"/><path d="M47.344 91.414L35.25 98.707" stroke-width="1.2" stroke="#000" stroke-miterlimit="10" fill="none"/><path d="M55.438 77.625h8v13h-8zm0 0" fill="#fff"/><use xlink:href="#a" x="55.438" y="87.526" fill="#00f"/><path d="M35.25 98.707l.535 28.238M41.95 101.406l.425 22.59M141.637 165.137l14.015-1.742" stroke-width="1.2" stroke="#000" stroke-miterlimit="10" fill="none"/><path d="M155.652 163.395l14.012-1.743M169.664 161.652l8.516 11.27" stroke-width="1.2" stroke="#00f" stroke-miterlimit="10" fill="none"/><path d="M178.18 172.922l8.515 11.266" stroke-width="1.2" stroke="#000" stroke-miterlimit="10" fill="none"/><path d="M169.664 161.652l5.5-13.004" stroke-width="1.2" stroke="#00f" stroke-miterlimit="10" fill="none"/><path d="M175.164 148.648l5.5-13.007" stroke-width="1.2" stroke="#000" stroke-miterlimit="10" fill="none"/><path d="M165.664 155.152h8v13h-8zm0 0" fill="#fff"/><use xlink:href="#a" x="165.664" y="165.054" fill="#00f"/><path d="M183.313 133.637l-8.516-11.266" stroke-width="1.2" stroke="#000" stroke-miterlimit="10" fill="none"/><path d="M174.797 122.37l-8.516-11.268" stroke-width="1.2" stroke="#f00" stroke-miterlimit="10" fill="none"/><path d="M178.012 137.64l-8.516-11.265" stroke-width="1.2" stroke="#000" stroke-miterlimit="10" fill="none"/><path d="M169.496 126.375l-8.516-11.266" stroke-width="1.2" stroke="#f00" stroke-miterlimit="10" fill="none"/><path d="M180.664 135.64l28.027-3.484" stroke-width="1.2" stroke="#000" stroke-miterlimit="10" fill="none"/><path d="M154.633 106.605h9v13h-9zm0 0" fill="#fff"/><use xlink:href="#b" x="154.633" y="116.507" fill="#f00"/><path d="M208.69 132.156l8.517 11.266" stroke-width="1.2" stroke="#000" stroke-miterlimit="10" fill="none"/><path d="M217.207 143.422l8.516 11.266" stroke-width="1.2" stroke="#00f" stroke-miterlimit="10" fill="none"/><path d="M215.695 130.402l6.813 9.012" stroke-width="1.2" stroke="#000" stroke-miterlimit="10" fill="none"/><path d="M222.508 139.414l6.812 9.012" stroke-width="1.2" stroke="#00f" stroke-miterlimit="10" fill="none"/><path d="M219.69 106.14l-11 26.016" stroke-width="1.2" stroke="#000" stroke-miterlimit="10" fill="none"/><path d="M225.723 154.688l14.015-1.743" stroke-width="1.2" stroke="#00f" stroke-miterlimit="10" fill="none"/><path d="M239.738 152.945l14.016-1.742" stroke-width="1.2" stroke="#000" stroke-miterlimit="10" fill="none"/><path d="M221.723 148.188h8v13h-8zm0 0" fill="#fff"/><use xlink:href="#a" x="221.723" y="158.089" fill="#00f"/><path d="M253.754 151.203l10.996-26.016M248.73 146.016l8.797-20.813M264.75 125.188l-8.516-11.266" stroke-width="1.2" stroke="#000" stroke-miterlimit="10" fill="none"/><path d="M256.234 113.922l-8.515-11.266M247.72 102.656l-14.017 1.742" stroke-width="1.2" stroke="#00f" stroke-miterlimit="10" fill="none"/><path d="M233.703 104.398l-14.012 1.743" stroke-width="1.2" stroke="#000" stroke-miterlimit="10" fill="none"/><path d="M245.734 109.602l-11.21 1.39" stroke-width="1.2" stroke="#00f" stroke-miterlimit="10" fill="none"/><path d="M234.523 110.992l-11.21 1.395" stroke-width="1.2" stroke="#000" stroke-miterlimit="10" fill="none"/><path d="M243.72 96.156h8v13h-8zm0 0" fill="#fff"/><use xlink:href="#a" x="243.719" y="106.058" fill="#00f"/></g></svg>
